jsapp/svg-icons/data-sync.svg

<?xml version="1.0" encoding="UTF-8"?>
<svg width="40px" height="40px" viewBox="0 0 40 40" version="1.1" xmlns="http://www.w3.org/2000/svg" xmlns:xlink="http://www.w3.org/1999/xlink">
    <!-- Generator: Sketch 50.2 (55047) - http://www.bohemiancoding.com/sketch -->
    <title>Icons/data-sync</title>
    <desc>Created with Sketch.</desc>
    <defs>
        <path d="M17,10 C21.547,10 24,11.419 24,12 C24,12.581 21.547,14 17,14 C12.453,14 10,12.581 10,12 C10,11.419 12.453,10 17,10 L17,10 Z M18,25.974 C17.678,25.989 17.347,26 17,26 C12.453,26 10,24.581 10,24 L10,22.6 C11.736,23.522 14.374,24 17,24 C17.334,24 17.668,23.992 18,23.977 L18,21.974 C17.678,21.989 17.347,22 17,22 C12.453,22 10,20.581 10,20 L10,18.6 C11.736,19.522 14.374,20 17,20 C17.334,20 17.668,19.992 18,19.977 L18,17.974 C17.678,17.989 17.347,18 17,18 C12.453,18 10,16.581 10,16 L10,14.6 C11.736,15.522 14.374,16 17,16 C19.626,16 22.264,15.522 24,14.6 L24,16 C24,16.002 23.999,16.004 23.999,16.006 L26,16.006 L26,12 C26,9.374 21.473,8 17,8 C12.527,8 8,9.374 8,12 L8,24 C8,26.626 12.527,28 17,28 C17.334,28 17.667,27.99 18,27.975 L18,25.974 Z M26,30 C24.923,30 23.936,29.56 23.189,28.811 L25,27 L20,27 L20,32 L21.761,30.239 C22.881,31.364 24.382,32 26,32 C29.309,32 32,29.309 32,26 L30,26 C30,28.206 28.206,30 26,30 M30.2397,21.7607 C29.1207,20.6357 27.6177,19.9997 25.9997,19.9997 C22.6917,19.9997 19.9997,22.6917 19.9997,25.9997 L21.9997,25.9997 C21.9997,23.7947 23.7947,21.9997 25.9997,21.9997 C27.0777,21.9997 28.0647,22.4407 28.8107,23.1887 L26.9997,24.9997 L31.9997,24.9997 L31.9997,19.9997 L30.2397,21.7607 Z" id="path-1"></path>
    </defs>
    <g id="Icons/data-sync" stroke="none" stroke-width="1" fill="none" fill-rule="evenodd">
        <mask id="mask-2" fill="white">
            <use xlink:href="#path-1"></use>
        </mask>
        <use id="Mask" fill="#000000" xlink:href="#path-1"></use>
    </g>
</svg>

<svg height="40" viewBox="0 0 40 40" width="40" xmlns="http://www.w3.org/2000/svg"><path d="m17 10c4.547 0 7 1.419 7 2s-2.453 2-7 2-7-1.419-7-2 2.453-2 7-2zm1 15.974c-.322.015-.653.026-1 .026-4.547 0-7-1.419-7-2v-1.4c1.736.922 4.374 1.4 7 1.4.334 0 .668-.008 1-.023v-2.003c-.322.015-.653.026-1 .026-4.547 0-7-1.419-7-2v-1.4c1.736.922 4.374 1.4 7 1.4.334 0 .668-.008 1-.023v-2.003c-.322.015-.653.026-1 .026-4.547 0-7-1.419-7-2v-1.4c1.736.922 4.374 1.4 7 1.4s5.264-.478 7-1.4v1.4c0 .002-.001.004-.001.006h2.001v-4.006c0-2.626-4.527-4-9-4s-9 1.374-9 4v12c0 2.626 4.527 4 9 4 .334 0 .667-.01 1-.025zm8 4.026c-1.077 0-2.064-.44-2.811-1.189l1.811-1.811h-5v5l1.761-1.761c1.12 1.125 2.621 1.761 4.239 1.761 3.309 0 6-2.691 6-6h-2c0 2.206-1.794 4-4 4m4.2397-8.2393c-1.119-1.125-2.622-1.761-4.24-1.761-3.308 0-6 2.692-6 6h2c0-2.205 1.795-4 4-4 1.078 0 2.065.441 2.811 1.189l-1.811 1.811h5v-5z" fill-rule="evenodd"/></svg>
